X:98
T: Lo yang qiao
N: C0122
O: China,Hunan, Chenxi
S: I, 536, 1)]
N: neues Volkslied
R: Xiaodiao. Qiongfu duibi]
M: 2/4
L: 1/16
K: F
d2f2dcAc | d2d4c2 | f2dcA2c2 | d2c2A4 |
d2Acd2c2 | A2c4A2 | A3cF2G2 | c2A6 |
GAGFD2F2 | A2G2z2dd | dfdcc2A2 | c2AGF2G2 |
z2A2F2G2 | c2A2c4 | G2AcG2F2 | D8

@@@ Tune index: 6099
